apps/mobile/assets/icons/phosphor/bookmark-simple.svg

<svg
  height="32"
  viewBox="0 0 256 256"
  width="32"
  xmlns="http://www.w3.org/2000/svg"
>
  <path
    d="m184 32h-112a16 16 0 0 0 -16 16v176a8 8 0 0 0 12.24 6.78l59.76-37.35 59.77 37.35a8 8 0 0 0 12.23-6.78v-176a16 16 0 0 0 -16-16zm0 177.57-51.77-32.35a8 8 0 0 0 -8.48 0l-51.75 32.35v-161.57h112z"
  />
</svg>

<svg xmlns="http://www.w3.org/2000/svg" width="32" height="32" fill="#000000" viewBox="0 0 256 256"><path d="M184,32H72A16,16,0,0,0,56,48V224a8,8,0,0,0,12.24,6.78L128,193.43l59.77,37.35A8,8,0,0,0,200,224V48A16,16,0,0,0,184,32Zm0,177.57-51.77-32.35a8,8,0,0,0-8.48,0L72,209.57V48H184Z"></path></svg>
